X:1
T:Lapp-lenas Vals
R:Vals
O:Västerbotten
M:3/4
Z:Anton Teljebäck
L:1/4
K:Gm
|: v(DG) G | GAB |(3(B/c/B/ A)A | Ac (A/c/) | (BG) G/B/ | (A^F)((D |D)G)G |1 G3 :|2 G3/ A/B/c/ ||
|:(dB)B | B3/ d/e/d/ | (cA)A |A3/ c/d/c/ | (BG) G/B/ | (A^F)((D | D)G)G |1 G3/ A/B/c/ :|2 G3 ||

